src/images/profile.svg

<svg width="128" height="60" viewBox="0 0 128 60" fill="none" xmlns="http://www.w3.org/2000/svg">
<g filter="url(#filter0_d_1018_1967)">
<rect x="14" y="11" width="100" height="32" rx="16" fill="white"/>
</g>
<path d="M26.8374 31.5L27.7053 28.9979H31.3984L32.2617 31.5H33.7759L30.3736 22.0455H28.7255L25.3232 31.5H26.8374ZM28.1207 27.7976L29.5149 23.7628H29.5888L30.983 27.7976H28.1207ZM35.0305 31.5H36.4108V28.6655H37.3064L39.4438 31.5H41.1565L38.3774 27.8576L41.1242 24.4091H39.4161L37.0756 27.3821H36.4108V24.4091H35.0305V31.5ZM42.2287 31.5H43.609V28.6655H44.5046L46.642 31.5H48.3548L45.5756 27.8576L48.3224 24.4091H46.6143L44.2738 27.3821H43.609V24.4091H42.2287V31.5ZM51.4905 31.657C52.6631 31.657 53.3232 31.0614 53.5864 30.5305H53.6418V31.5H54.9898V26.7912C54.9898 24.7276 53.3648 24.3168 52.2384 24.3168C50.955 24.3168 49.7732 24.8338 49.3115 26.1264L50.6088 26.4219C50.8119 25.9187 51.3289 25.4339 52.2568 25.4339C53.1478 25.4339 53.6048 25.9002 53.6048 26.7035V26.7358C53.6048 27.239 53.0878 27.2298 51.8137 27.3775C50.4703 27.5344 49.0945 27.8853 49.0945 29.4964C49.0945 30.8906 50.1425 31.657 51.4905 31.657ZM51.7906 30.549C51.0104 30.549 50.4472 30.1982 50.4472 29.5149C50.4472 28.7763 51.1027 28.5131 51.9014 28.407C52.3492 28.3469 53.411 28.2269 53.6095 28.0284V28.9425C53.6095 29.7827 52.9401 30.549 51.7906 30.549ZM57.4469 34.1406C58.5872 34.1406 59.312 33.5451 59.7182 32.4464L62.6497 24.4229L61.1586 24.4091L59.3627 29.9119H59.2889L57.4931 24.4091H56.0158L58.6103 31.5923L58.4395 32.0632C58.0886 32.9819 57.5946 33.065 56.8375 32.8572L56.5051 33.9883C56.6713 34.0668 57.0314 34.1406 57.4469 34.1406ZM65.303 24.4091H63.9504V31.5H65.303V28.5547H68.373V31.5H69.721V24.4091H68.373V27.359H65.303V24.4091ZM70.6881 25.6001H73.0102V31.5H74.3582V25.6001H76.6711V24.4091H70.6881V25.6001Z" fill="#222222"/>
<rect x="85" y="14" width="26" height="26" rx="13" fill="#F5F5F5"/>
<path fill-rule="evenodd" clip-rule="evenodd" d="M99.4301 28.9678C100.792 28.4057 101.75 27.0648 101.75 25.5C101.75 23.4289 100.071 21.75 98.0003 21.75C95.9293 21.75 94.2503 23.4289 94.2503 25.5C94.2503 27.0647 95.2087 28.4056 96.5705 28.9677C95.1758 29.1999 93.8929 29.7659 92.8086 30.5806L94.1901 32.4194C95.2514 31.6221 96.569 31.15 98.0001 31.15C99.4312 31.15 100.749 31.6221 101.81 32.4194L103.192 30.5806C102.107 29.766 100.825 29.2 99.4301 28.9678Z" fill="black"/>
<defs>
<filter id="filter0_d_1018_1967" x="0" y="0" width="128" height="60" filterUnits="userSpaceOnUse" color-interpolation-filters="sRGB">
<feFlood flood-opacity="0" result="BackgroundImageFix"/>
<feColorMatrix in="SourceAlpha" type="matrix" values="0 0 0 0 0 0 0 0 0 0 0 0 0 0 0 0 0 0 127 0" result="hardAlpha"/>
<feOffset dy="3"/>
<feGaussianBlur stdDeviation="7"/>
<feColorMatrix type="matrix" values="0 0 0 0 0 0 0 0 0 0 0 0 0 0 0 0 0 0 0.08 0"/>
<feBlend mode="normal" in2="BackgroundImageFix" result="effect1_dropShadow_1018_1967"/>
<feBlend mode="normal" in="SourceGraphic" in2="effect1_dropShadow_1018_1967" result="shape"/>
</filter>
</defs>
</svg>

<svg width="128" height="60" fill="none" xmlns="http://www.w3.org/2000/svg"><g filter="url(#a)"><rect x="14" y="11" width="100" height="32" rx="16" fill="#fff"/></g><path d="m26.837 31.5.868-2.502h3.693l.864 2.502h1.514l-3.402-9.454h-1.648L25.323 31.5h1.514Zm1.284-3.702 1.394-4.035h.074l1.394 4.035h-2.862Zm6.91 3.702h1.38v-2.834h.895l2.138 2.834h1.712l-2.779-3.642 2.747-3.449h-1.708l-2.34 2.973h-.665V24.41h-1.38V31.5Zm7.198 0h1.38v-2.834h.896l2.137 2.834h1.713l-2.78-3.642 2.747-3.449h-1.708l-2.34 2.973h-.665V24.41h-1.38V31.5Zm9.261.157c1.173 0 1.833-.596 2.096-1.127h.056v.97h1.348v-4.709c0-2.063-1.625-2.474-2.752-2.474-1.283 0-2.465.517-2.926 1.81l1.297.295c.203-.503.72-.988 1.648-.988.89 0 1.348.466 1.348 1.27v.032c0 .503-.517.494-1.791.642-1.344.156-2.72.507-2.72 2.118 0 1.395 1.048 2.161 2.396 2.161Zm.3-1.108c-.78 0-1.343-.35-1.343-1.034 0-.739.656-1.002 1.454-1.108.448-.06 1.51-.18 1.708-.379v.915c0 .84-.669 1.606-1.818 1.606Zm5.657 3.592c1.14 0 1.865-.596 2.271-1.695l2.932-8.023-1.491-.014-1.796 5.503h-.074l-1.796-5.503h-1.477l2.594 7.183-.17.471c-.351.919-.845 1.002-1.602.794l-.333 1.131c.166.079.526.153.942.153Zm7.856-9.732H63.95V31.5h1.353v-2.945h3.07V31.5h1.348v-7.09h-1.348v2.949h-3.07v-2.95Zm5.385 1.191h2.322v5.9h1.348v-5.9h2.313v-1.19h-5.983v1.19Z" fill="#222"/><rect x="85" y="14" width="26" height="26" rx="13" fill="#F5F5F5"/><path fill-rule="evenodd" clip-rule="evenodd" d="M99.43 28.968a3.75 3.75 0 1 0-2.86 0 8.614 8.614 0 0 0-3.761 1.613l1.381 1.838A6.317 6.317 0 0 1 98 31.15c1.431 0 2.749.472 3.81 1.27l1.382-1.84a8.617 8.617 0 0 0-3.762-1.612Z" fill="#000"/><defs><filter id="a" x="0" y="0" width="128" height="60" filterUnits="userSpaceOnUse" color-interpolation-filters="sRGB"><feFlood flood-opacity="0" result="BackgroundImageFix"/><feColorMatrix in="SourceAlpha" values="0 0 0 0 0 0 0 0 0 0 0 0 0 0 0 0 0 0 127 0" result="hardAlpha"/><feOffset dy="3"/><feGaussianBlur stdDeviation="7"/><feColorMatrix values="0 0 0 0 0 0 0 0 0 0 0 0 0 0 0 0 0 0 0.08 0"/><feBlend in2="BackgroundImageFix" result="effect1_dropShadow_1018_1967"/><feBlend in="SourceGraphic" in2="effect1_dropShadow_1018_1967" result="shape"/></filter></defs></svg>
